lib/assets/images/ic_back.svg

<svg width="180" height="180" viewBox="0 0 180 180" fill="none" xmlns="http://www.w3.org/2000/svg">
<path d="M108.811 140.664C110.161 140.664 111.436 140.139 112.411 139.089C114.211 137.064 114.061 133.989 112.111 132.189L64.343 89.1371L112.412 47.5121C114.437 45.7121 114.512 42.6371 112.712 40.6121C110.912 38.6621 107.837 38.5121 105.812 40.3121L54.068 85.2371C51.743 87.3371 51.743 90.9371 54.068 93.0371L105.511 139.389C106.486 140.289 107.611 140.664 108.811 140.664Z" fill="black"/>
</svg>

<svg width="180" height="180" fill="none" xmlns="http://www.w3.org/2000/svg"><path d="M108.811 140.664c1.35 0 2.625-.525 3.6-1.575 1.8-2.025 1.65-5.1-.3-6.9L64.343 89.137l48.069-41.625c2.025-1.8 2.1-4.875.3-6.9-1.8-1.95-4.875-2.1-6.9-.3L54.068 85.237a5.233 5.233 0 0 0 0 7.8l51.443 46.352c.975.9 2.1 1.275 3.3 1.275z" fill="#000"/></svg>
